X: 317
T: 6/8 en Re
R: Jig
M: 6/8
L: 1/8
K: D
a2a|"Em"g2f "A7"efg|"D"f2d "G"Bcd|"D/F#"ABA "D"FED|"Em"ECA "A7"a2a|
"Em"g2f "A7"efg|"D"f2d "G" Bcd|"D/F#"ABA "D"FED|1"A" A3 a2a:|2 "A"A3 "D"FAd||
|:"A7"c3 "A/C#"Ace|"D" d2d Adf|"Em7" efg "A"abf|"D"afd FAd|"A"c3 "A7"Ace|
"D"d2d Adf|"G" efg "A7"abc'|1 "D"d'3 FAd:|2 "D"d'3 "D#7o"a2a|]

